img/payment/icon.svg

<svg width="41" height="36" viewBox="0 0 41 36" fill="none" xmlns="http://www.w3.org/2000/svg">
<g opacity="0.3">
<path fill-rule="evenodd" clip-rule="evenodd" d="M7.13648 0.0759679C6.61678 0.195061 6.46319 0.44965 5.56743 2.67604L4.72461 4.77113V9.17448C4.72461 13.3417 4.73246 13.5848 4.87107 13.7065C5.07255 13.8836 5.48976 13.8698 5.68555 13.6797C5.84154 13.5283 5.8457 13.4206 5.8457 9.52079V5.51733H12.0518H18.2578V9.91337C18.2578 14.65 18.253 14.5926 18.6756 14.8799C18.8612 15.0062 19.2634 15.0394 19.507 14.9487C19.5846 14.9198 20.3353 14.3035 21.1751 13.5791C22.015 12.8548 22.7462 12.2454 22.7999 12.225C22.8537 12.2045 23.5024 12.7072 24.2415 13.3419C26.2776 15.0905 26.1576 15.0013 26.4725 15.0013C26.8415 15.0013 27.172 14.8295 27.291 14.5759C27.3617 14.4255 27.3867 13.2117 27.3867 9.9447V5.51733H33.5928H39.7988V18.3855C39.7988 32.7159 39.8467 31.552 39.2501 31.7129C38.8864 31.8109 28.3477 31.8226 28.3477 31.725C28.3477 31.6878 28.6141 31.6408 28.9398 31.6205C29.8452 31.5642 30.409 31.1957 30.76 30.4311C31.1333 29.618 30.9336 28.6916 30.2572 28.0984L29.9339 27.8148L30.0967 27.6464C30.5256 27.203 30.7298 26.1791 30.5053 25.598C30.364 25.2324 30.0325 24.8188 29.7225 24.6213C29.5609 24.5184 27.365 23.6184 24.8426 22.6214C22.3203 21.6244 20.2682 20.7975 20.2822 20.7838C20.2963 20.7702 21.2912 20.4631 22.4931 20.1014C23.7473 19.7239 24.81 19.3592 24.9871 19.2454C25.5946 18.8552 25.9197 17.9474 25.7151 17.2126C25.6146 16.8517 25.1558 16.2949 24.8202 16.1264C24.2624 15.8464 23.8933 15.8404 22.6621 16.0917C16.2893 17.3919 12.9932 17.9871 10.834 18.2276C9.44898 18.3818 9.15741 18.368 9.19737 18.1496C9.34984 17.3168 9.25759 16.941 8.82981 16.6517C8.5481 16.4612 5.21437 15.1567 5.00905 15.1567C4.68321 15.1567 4.16118 15.4793 4.00455 15.7775C3.63915 16.4727 0 25.2624 0 25.4497C0 25.7238 0.179295 26.123 0.380371 26.2968C0.611877 26.4968 3.81925 27.7614 4.21083 27.8071C4.60417 27.8529 4.9654 27.6928 5.21869 27.3601C5.31591 27.2327 5.44635 27.1283 5.50865 27.1283C5.71758 27.1283 6.97673 27.7434 7.47673 28.0897C7.74892 28.2783 8.32524 28.8033 8.75726 29.2562C9.18937 29.7092 9.78314 30.2562 10.0766 30.4718C10.5675 30.8324 11.5694 31.3715 12.252 31.6424C12.5036 31.7423 12.2302 31.7557 9.57766 31.774C5.72855 31.8006 5.84907 31.8493 5.8469 30.2658C5.84586 29.5412 5.8216 29.371 5.69804 29.2228C5.51578 29.0043 5.11411 28.9868 4.88581 29.1874C4.73926 29.3162 4.72469 29.4249 4.72541 30.3858C4.72613 31.3351 4.74559 31.4831 4.91696 31.8404C5.02194 32.0592 5.2307 32.3293 5.38093 32.4405C5.99193 32.8929 5.84186 32.8808 10.8354 32.8808H15.4299L19.3733 34.4404C23.0637 35.9 23.3492 36 23.823 36C24.9407 36 25.8652 35.1429 25.8652 34.1069V33.835L26.3257 33.7836C26.8934 33.7204 27.5757 33.4082 27.8052 33.1069L27.9774 32.8808L33.6679 32.8803C37.5266 32.8801 39.4615 32.8527 39.6787 32.7951C40.1001 32.6836 40.7674 32.0255 40.9016 31.5891C40.9777 31.3415 41 28.2816 41 18.0599V4.85074L40.1279 2.69112C39.6483 1.5033 39.1769 0.449883 39.0804 0.350069C38.9838 0.250332 38.7476 0.130306 38.5556 0.0833529C38.1068 -0.0263342 35.4962 -0.0283553 35.1738 0.0807876C34.7238 0.233075 34.6548 0.86842 35.0651 1.08158C35.161 1.1314 35.8248 1.16405 36.7412 1.16405H38.2586L38.6391 2.11633C38.8484 2.64005 39.1371 3.355 39.2808 3.70505C39.4245 4.0551 39.5217 4.36115 39.4969 4.38525C39.4721 4.40935 36.7198 4.42901 33.3807 4.42901H27.3097L27.2674 4.2541C27.2442 4.15794 27.07 3.43203 26.8805 2.64106L26.5356 1.20292L28.8992 1.18232C31.1959 1.16227 31.2679 1.15698 31.4468 0.99381C31.7727 0.696699 31.6569 0.231675 31.2202 0.083897C30.92 -0.0177054 7.57867 -0.0254013 7.13648 0.0759679ZM19.1387 1.20976C19.1387 1.31315 18.4133 4.29569 18.3726 4.35959C18.3206 4.4413 6.16602 4.45599 6.16602 4.37436C6.16602 4.32484 7.07218 2.02523 7.33147 1.4167L7.4391 1.16405H13.2889C16.5063 1.16405 19.1387 1.18458 19.1387 1.20976ZM25.711 2.75766C25.9167 3.61277 26.0695 4.33868 26.0505 4.37071C25.9994 4.45692 19.6191 4.44347 19.6191 4.35718C19.6191 4.31762 19.7813 3.6036 19.9795 2.77034C20.1777 1.93715 20.3398 1.23433 20.3398 1.2086C20.3398 1.18287 21.4642 1.17105 22.8384 1.1824L25.337 1.20292L25.711 2.75766ZM26.2656 9.53028C26.2656 13.2871 26.257 13.5365 26.1304 13.4366C26.056 13.378 25.4704 12.8797 24.8291 12.3294C24.1878 11.7791 23.5469 11.2421 23.4048 11.1361C23.0986 10.9077 22.6736 10.8827 22.3707 11.0755C22.1832 11.1948 20.3636 12.7341 19.7192 13.3186L19.459 13.5547V9.53603V5.51733H22.8623H26.2656V9.53028ZM6.67027 16.9679C7.91124 17.4553 8.09149 17.5478 8.06467 17.6832C8.02519 17.8831 4.40093 26.5231 4.31901 26.6127C4.23373 26.7059 1.18796 25.4958 1.21767 25.3805C1.23064 25.3303 2.08804 23.2716 3.12305 20.8055C4.59753 17.2923 5.03091 16.331 5.125 16.3649C5.19106 16.3886 5.88646 16.66 6.67027 16.9679ZM24.2589 17.1367C24.7099 17.3631 24.718 18.1079 24.2718 18.3398C24.1807 18.387 22.8256 18.8107 21.2605 19.2812C19.6954 19.7517 18.3267 20.1756 18.219 20.2233C17.9762 20.3307 17.857 20.6445 17.9546 20.9202C18.0444 21.1743 17.7327 21.0403 23.9033 23.4782C26.634 24.557 28.9647 25.5054 29.0826 25.5856C29.5387 25.896 29.5449 26.6256 29.0945 26.9695C28.6421 27.3149 28.6392 27.3141 24.7462 25.7721C22.7435 24.9788 21.0268 24.3297 20.9314 24.3297C20.4665 24.3297 20.2118 24.9455 20.5467 25.2597C20.6311 25.3389 22.6281 26.1636 24.9844 27.0923C27.9771 28.272 29.3376 28.8455 29.4975 28.9946C29.6631 29.1491 29.738 29.3071 29.7679 29.5654C29.8062 29.8947 29.7873 29.944 29.527 30.1968C29.2624 30.4536 29.0988 30.5091 28.708 30.4748C28.6199 30.467 26.5907 29.6874 24.1985 28.7423C19.4941 26.8838 19.5757 26.9067 19.309 27.3678C19.136 27.667 19.2461 27.9543 19.6004 28.1284C19.7649 28.2093 21.2507 28.8083 22.9023 29.4597C26.8206 31.0049 26.8662 31.0254 27.0203 31.3146C27.3534 31.9399 26.9063 32.6476 26.1783 32.6476C26.0834 32.6476 24.3696 32.0004 22.3701 31.2094C20.3704 30.4185 18.6861 29.7713 18.6271 29.7713C18.568 29.7713 18.4247 29.8438 18.3087 29.9325C18.0511 30.1291 18.0201 30.5341 18.2471 30.7336C18.3293 30.8058 19.6896 31.376 21.27 32.0008C22.8505 32.6255 24.24 33.2022 24.358 33.2822C24.6128 33.455 24.7766 33.8822 24.7065 34.1917C24.6789 34.3138 24.5512 34.5114 24.4228 34.6309C23.9739 35.0483 24.0346 35.0668 17.8574 32.619C14.7524 31.3885 11.9957 30.2757 11.7314 30.146C11.0659 29.8195 10.6175 29.4859 10.0098 28.865C8.48748 27.3097 7.74748 26.7644 6.47103 26.2576L5.85507 26.0131L5.97519 25.735C6.04125 25.5821 6.6014 24.25 7.22 22.775C7.83853 21.2999 8.41421 19.9341 8.49933 19.7397L8.65404 19.3865L9.4051 19.4184C10.3503 19.4585 11.2581 19.3588 13.9736 18.9168C15.9078 18.602 21.1158 17.5951 22.9023 17.1906C23.743 17.0003 23.9693 16.9913 24.2589 17.1367Z" fill="url(#paint0_linear_1710_4875)"/>
<path fill-rule="evenodd" clip-rule="evenodd" d="M7.13648 0.0759679C6.61678 0.195061 6.46319 0.44965 5.56743 2.67604L4.72461 4.77113V9.17448C4.72461 13.3417 4.73246 13.5848 4.87107 13.7065C5.07255 13.8836 5.48976 13.8698 5.68555 13.6797C5.84154 13.5283 5.8457 13.4206 5.8457 9.52079V5.51733H12.0518H18.2578V9.91337C18.2578 14.65 18.253 14.5926 18.6756 14.8799C18.8612 15.0062 19.2634 15.0394 19.507 14.9487C19.5846 14.9198 20.3353 14.3035 21.1751 13.5791C22.015 12.8548 22.7462 12.2454 22.7999 12.225C22.8537 12.2045 23.5024 12.7072 24.2415 13.3419C26.2776 15.0905 26.1576 15.0013 26.4725 15.0013C26.8415 15.0013 27.172 14.8295 27.291 14.5759C27.3617 14.4255 27.3867 13.2117 27.3867 9.9447V5.51733H33.5928H39.7988V18.3855C39.7988 32.7159 39.8467 31.552 39.2501 31.7129C38.8864 31.8109 28.3477 31.8226 28.3477 31.725C28.3477 31.6878 28.6141 31.6408 28.9398 31.6205C29.8452 31.5642 30.409 31.1957 30.76 30.4311C31.1333 29.618 30.9336 28.6916 30.2572 28.0984L29.9339 27.8148L30.0967 27.6464C30.5256 27.203 30.7298 26.1791 30.5053 25.598C30.364 25.2324 30.0325 24.8188 29.7225 24.6213C29.5609 24.5184 27.365 23.6184 24.8426 22.6214C22.3203 21.6244 20.2682 20.7975 20.2822 20.7838C20.2963 20.7702 21.2912 20.4631 22.4931 20.1014C23.7473 19.7239 24.81 19.3592 24.9871 19.2454C25.5946 18.8552 25.9197 17.9474 25.7151 17.2126C25.6146 16.8517 25.1558 16.2949 24.8202 16.1264C24.2624 15.8464 23.8933 15.8404 22.6621 16.0917C16.2893 17.3919 12.9932 17.9871 10.834 18.2276C9.44898 18.3818 9.15741 18.368 9.19737 18.1496C9.34984 17.3168 9.25759 16.941 8.82981 16.6517C8.5481 16.4612 5.21437 15.1567 5.00905 15.1567C4.68321 15.1567 4.16118 15.4793 4.00455 15.7775C3.63915 16.4727 0 25.2624 0 25.4497C0 25.7238 0.179295 26.123 0.380371 26.2968C0.611877 26.4968 3.81925 27.7614 4.21083 27.8071C4.60417 27.8529 4.9654 27.6928 5.21869 27.3601C5.31591 27.2327 5.44635 27.1283 5.50865 27.1283C5.71758 27.1283 6.97673 27.7434 7.47673 28.0897C7.74892 28.2783 8.32524 28.8033 8.75726 29.2562C9.18937 29.7092 9.78314 30.2562 10.0766 30.4718C10.5675 30.8324 11.5694 31.3715 12.252 31.6424C12.5036 31.7423 12.2302 31.7557 9.57766 31.774C5.72855 31.8006 5.84907 31.8493 5.8469 30.2658C5.84586 29.5412 5.8216 29.371 5.69804 29.2228C5.51578 29.0043 5.11411 28.9868 4.88581 29.1874C4.73926 29.3162 4.72469 29.4249 4.72541 30.3858C4.72613 31.3351 4.74559 31.4831 4.91696 31.8404C5.02194 32.0592 5.2307 32.3293 5.38093 32.4405C5.99193 32.8929 5.84186 32.8808 10.8354 32.8808H15.4299L19.3733 34.4404C23.0637 35.9 23.3492 36 23.823 36C24.9407 36 25.8652 35.1429 25.8652 34.1069V33.835L26.3257 33.7836C26.8934 33.7204 27.5757 33.4082 27.8052 33.1069L27.9774 32.8808L33.6679 32.8803C37.5266 32.8801 39.4615 32.8527 39.6787 32.7951C40.1001 32.6836 40.7674 32.0255 40.9016 31.5891C40.9777 31.3415 41 28.2816 41 18.0599V4.85074L40.1279 2.69112C39.6483 1.5033 39.1769 0.449883 39.0804 0.350069C38.9838 0.250332 38.7476 0.130306 38.5556 0.0833529C38.1068 -0.0263342 35.4962 -0.0283553 35.1738 0.0807876C34.7238 0.233075 34.6548 0.86842 35.0651 1.08158C35.161 1.1314 35.8248 1.16405 36.7412 1.16405H38.2586L38.6391 2.11633C38.8484 2.64005 39.1371 3.355 39.2808 3.70505C39.4245 4.0551 39.5217 4.36115 39.4969 4.38525C39.4721 4.40935 36.7198 4.42901 33.3807 4.42901H27.3097L27.2674 4.2541C27.2442 4.15794 27.07 3.43203 26.8805 2.64106L26.5356 1.20292L28.8992 1.18232C31.1959 1.16227 31.2679 1.15698 31.4468 0.99381C31.7727 0.696699 31.6569 0.231675 31.2202 0.083897C30.92 -0.0177054 7.57867 -0.0254013 7.13648 0.0759679ZM19.1387 1.20976C19.1387 1.31315 18.4133 4.29569 18.3726 4.35959C18.3206 4.4413 6.16602 4.45599 6.16602 4.37436C6.16602 4.32484 7.07218 2.02523 7.33147 1.4167L7.4391 1.16405H13.2889C16.5063 1.16405 19.1387 1.18458 19.1387 1.20976ZM25.711 2.75766C25.9167 3.61277 26.0695 4.33868 26.0505 4.37071C25.9994 4.45692 19.6191 4.44347 19.6191 4.35718C19.6191 4.31762 19.7813 3.6036 19.9795 2.77034C20.1777 1.93715 20.3398 1.23433 20.3398 1.2086C20.3398 1.18287 21.4642 1.17105 22.8384 1.1824L25.337 1.20292L25.711 2.75766ZM26.2656 9.53028C26.2656 13.2871 26.257 13.5365 26.1304 13.4366C26.056 13.378 25.4704 12.8797 24.8291 12.3294C24.1878 11.7791 23.5469 11.2421 23.4048 11.1361C23.0986 10.9077 22.6736 10.8827 22.3707 11.0755C22.1832 11.1948 20.3636 12.7341 19.7192 13.3186L19.459 13.5547V9.53603V5.51733H22.8623H26.2656V9.53028ZM6.67027 16.9679C7.91124 17.4553 8.09149 17.5478 8.06467 17.6832C8.02519 17.8831 4.40093 26.5231 4.31901 26.6127C4.23373 26.7059 1.18796 25.4958 1.21767 25.3805C1.23064 25.3303 2.08804 23.2716 3.12305 20.8055C4.59753 17.2923 5.03091 16.331 5.125 16.3649C5.19106 16.3886 5.88646 16.66 6.67027 16.9679ZM24.2589 17.1367C24.7099 17.3631 24.718 18.1079 24.2718 18.3398C24.1807 18.387 22.8256 18.8107 21.2605 19.2812C19.6954 19.7517 18.3267 20.1756 18.219 20.2233C17.9762 20.3307 17.857 20.6445 17.9546 20.9202C18.0444 21.1743 17.7327 21.0403 23.9033 23.4782C26.634 24.557 28.9647 25.5054 29.0826 25.5856C29.5387 25.896 29.5449 26.6256 29.0945 26.9695C28.6421 27.3149 28.6392 27.3141 24.7462 25.7721C22.7435 24.9788 21.0268 24.3297 20.9314 24.3297C20.4665 24.3297 20.2118 24.9455 20.5467 25.2597C20.6311 25.3389 22.6281 26.1636 24.9844 27.0923C27.9771 28.272 29.3376 28.8455 29.4975 28.9946C29.6631 29.1491 29.738 29.3071 29.7679 29.5654C29.8062 29.8947 29.7873 29.944 29.527 30.1968C29.2624 30.4536 29.0988 30.5091 28.708 30.4748C28.6199 30.467 26.5907 29.6874 24.1985 28.7423C19.4941 26.8838 19.5757 26.9067 19.309 27.3678C19.136 27.667 19.2461 27.9543 19.6004 28.1284C19.7649 28.2093 21.2507 28.8083 22.9023 29.4597C26.8206 31.0049 26.8662 31.0254 27.0203 31.3146C27.3534 31.9399 26.9063 32.6476 26.1783 32.6476C26.0834 32.6476 24.3696 32.0004 22.3701 31.2094C20.3704 30.4185 18.6861 29.7713 18.6271 29.7713C18.568 29.7713 18.4247 29.8438 18.3087 29.9325C18.0511 30.1291 18.0201 30.5341 18.2471 30.7336C18.3293 30.8058 19.6896 31.376 21.27 32.0008C22.8505 32.6255 24.24 33.2022 24.358 33.2822C24.6128 33.455 24.7766 33.8822 24.7065 34.1917C24.6789 34.3138 24.5512 34.5114 24.4228 34.6309C23.9739 35.0483 24.0346 35.0668 17.8574 32.619C14.7524 31.3885 11.9957 30.2757 11.7314 30.146C11.0659 29.8195 10.6175 29.4859 10.0098 28.865C8.48748 27.3097 7.74748 26.7644 6.47103 26.2576L5.85507 26.0131L5.97519 25.735C6.04125 25.5821 6.6014 24.25 7.22 22.775C7.83853 21.2999 8.41421 19.9341 8.49933 19.7397L8.65404 19.3865L9.4051 19.4184C10.3503 19.4585 11.2581 19.3588 13.9736 18.9168C15.9078 18.602 21.1158 17.5951 22.9023 17.1906C23.743 17.0003 23.9693 16.9913 24.2589 17.1367Z" fill="white"/>
</g>
<defs>
<linearGradient id="paint0_linear_1710_4875" x1="0" y1="0" x2="36.3886" y2="41.6457" gradientUnits="userSpaceOnUse">
<stop stop-color="#0ABD92"/>
<stop offset="1" stop-color="#009DB8"/>
</linearGradient>
</defs>
</svg>

<svg width="41" height="36" fill="none" xmlns="http://www.w3.org/2000/svg"><g opacity=".3" fill-rule="evenodd" clip-rule="evenodd"><path d="M7.136.076c-.52.12-.673.374-1.569 2.6l-.842 2.095v4.403c0 4.168.007 4.41.146 4.533.202.177.619.163.815-.027.156-.152.16-.26.16-4.16V5.518h12.412v4.396c0 4.737-.005 4.68.418 4.967.185.126.587.16.831.069.078-.03.828-.646 1.668-1.37.84-.724 1.571-1.334 1.625-1.354.054-.02.702.482 1.441 1.117 2.037 1.748 1.917 1.66 2.232 1.66.369 0 .699-.173.818-.426.07-.15.096-1.364.096-4.631V5.517h12.412v12.868c0 14.33.048 13.167-.549 13.328-.364.098-10.902.11-10.902.012 0-.037.266-.084.592-.105.905-.056 1.469-.424 1.82-1.189a1.97 1.97 0 00-.503-2.333l-.323-.283.163-.169c.429-.443.633-1.467.408-2.048-.141-.366-.473-.78-.782-.977-.162-.103-2.358-1.003-4.88-2-2.523-.997-4.575-1.823-4.56-1.837.013-.014 1.008-.32 2.21-.683 1.254-.377 2.317-.742 2.494-.856.608-.39.933-1.298.728-2.032-.1-.361-.56-.918-.895-1.087-.558-.28-.927-.286-2.158-.034-6.373 1.3-9.669 1.895-11.828 2.136-1.385.154-1.677.14-1.637-.078.153-.833.06-1.209-.367-1.498-.282-.19-3.616-1.495-3.821-1.495-.326 0-.848.322-1.004.62C3.639 16.474 0 25.262 0 25.45c0 .274.18.673.38.847.232.2 3.44 1.464 3.83 1.51.394.046.755-.114 1.009-.447.097-.127.227-.232.29-.232.209 0 1.468.615 1.968.962.272.188.848.713 1.28 1.166.432.453 1.026 1 1.32 1.216.49.36 1.492.9 2.175 1.17.252.1-.022.114-2.674.132-3.85.027-3.729.075-3.731-1.508-.001-.725-.025-.895-.149-1.043-.182-.219-.584-.236-.812-.036-.147.13-.161.238-.16 1.199 0 .95.02 1.097.191 1.454.105.22.314.49.464.6.61.453.46.44 5.454.44h4.595l3.943 1.56c3.69 1.46 3.976 1.56 4.45 1.56 1.118 0 2.042-.857 2.042-1.893v-.272l.46-.051c.568-.064 1.25-.376 1.48-.677l.172-.226h5.69c3.86 0 5.794-.028 6.012-.086.421-.111 1.088-.77 1.223-1.206.076-.247.098-3.307.098-13.53V4.852l-.872-2.16c-.48-1.188-.951-2.241-1.048-2.34-.096-.1-.332-.22-.524-.268-.45-.11-3.06-.111-3.382-.002-.45.152-.52.787-.109 1 .096.05.76.083 1.676.083h1.518l.38.952c.21.524.498 1.239.642 1.589.144.35.24.656.216.68-.025.024-2.777.044-6.116.044H27.31l-.043-.175-.386-1.613-.345-1.438 2.363-.02c2.297-.02 2.369-.026 2.548-.19.326-.296.21-.761-.227-.91-.3-.1-23.641-.108-24.084-.007zM19.14 1.21c0 .103-.726 3.086-.766 3.15-.052.081-12.207.096-12.207.014 0-.05.906-2.349 1.165-2.957l.108-.253h5.85c3.217 0 5.85.02 5.85.046zm6.572 1.548c.206.855.359 1.58.34 1.613-.052.086-6.432.072-6.432-.014 0-.04.162-.753.36-1.587.199-.833.36-1.536.36-1.561 0-.026 1.125-.038 2.5-.027l2.498.02.374 1.556zm.555 6.772c0 3.757-.009 4.007-.136 3.907-.074-.059-.66-.557-1.3-1.108a53.424 53.424 0 00-1.425-1.193c-.306-.228-.731-.253-1.034-.06-.188.119-2.007 1.658-2.652 2.243l-.26.236V5.517h6.807V9.53zM6.67 16.968c1.241.487 1.421.58 1.395.715-.04.2-3.664 8.84-3.746 8.93-.085.093-3.131-1.117-3.101-1.232.013-.05.87-2.11 1.905-4.576 1.475-3.513 1.908-4.474 2.002-4.44.066.024.761.295 1.545.603zm17.589.169c.45.226.459.97.013 1.203-.091.047-1.446.47-3.011.941-1.566.47-2.934.895-3.042.942-.243.108-.362.422-.264.697.09.254-.222.12 5.948 2.558 2.731 1.079 5.062 2.027 5.18 2.108.456.31.462 1.04.012 1.384-.453.345-.456.344-4.349-1.198-2.002-.793-3.72-1.442-3.815-1.442-.465 0-.72.616-.384.93.084.079 2.081.904 4.437 1.832 2.993 1.18 4.354 1.754 4.513 1.903.166.154.241.312.27.57.04.33.02.379-.24.632-.265.257-.428.312-.819.278-.088-.008-2.117-.788-4.51-1.733-4.704-1.858-4.622-1.835-4.889-1.374-.173.299-.063.586.291.76.165.081 1.65.68 3.302 1.332 3.919 1.545 3.964 1.565 4.118 1.855.333.625-.114 1.333-.842 1.333-.095 0-1.808-.648-3.808-1.439-2-.79-3.684-1.438-3.743-1.438-.059 0-.202.073-.318.162-.258.196-.289.601-.062.8.082.073 1.443.643 3.023 1.268s2.97 1.201 3.088 1.281c.255.173.419.6.348.91-.027.122-.155.32-.283.439-.45.417-.388.436-6.566-2.012-3.105-1.23-5.861-2.343-6.126-2.473-.665-.326-1.114-.66-1.721-1.281-1.523-1.555-2.263-2.1-3.539-2.607l-.616-.245.12-.278c.066-.153.626-1.485 1.245-2.96A517 517 0 018.5 19.74l.154-.353.751.031c.945.04 1.853-.06 4.569-.501 1.934-.315 7.142-1.322 8.928-1.726.841-.19 1.067-.2 1.357-.054z" fill="url(#paint0_linear_1710_4875)"/><path d="M7.136.076c-.52.12-.673.374-1.569 2.6l-.842 2.095v4.403c0 4.168.007 4.41.146 4.533.202.177.619.163.815-.027.156-.152.16-.26.16-4.16V5.518h12.412v4.396c0 4.737-.005 4.68.418 4.967.185.126.587.16.831.069.078-.03.828-.646 1.668-1.37.84-.724 1.571-1.334 1.625-1.354.054-.02.702.482 1.441 1.117 2.037 1.748 1.917 1.66 2.232 1.66.369 0 .699-.173.818-.426.07-.15.096-1.364.096-4.631V5.517h12.412v12.868c0 14.33.048 13.167-.549 13.328-.364.098-10.902.11-10.902.012 0-.037.266-.084.592-.105.905-.056 1.469-.424 1.82-1.189a1.97 1.97 0 00-.503-2.333l-.323-.283.163-.169c.429-.443.633-1.467.408-2.048-.141-.366-.473-.78-.782-.977-.162-.103-2.358-1.003-4.88-2-2.523-.997-4.575-1.823-4.56-1.837.013-.014 1.008-.32 2.21-.683 1.254-.377 2.317-.742 2.494-.856.608-.39.933-1.298.728-2.032-.1-.361-.56-.918-.895-1.087-.558-.28-.927-.286-2.158-.034-6.373 1.3-9.669 1.895-11.828 2.136-1.385.154-1.677.14-1.637-.078.153-.833.06-1.209-.367-1.498-.282-.19-3.616-1.495-3.821-1.495-.326 0-.848.322-1.004.62C3.639 16.474 0 25.262 0 25.45c0 .274.18.673.38.847.232.2 3.44 1.464 3.83 1.51.394.046.755-.114 1.009-.447.097-.127.227-.232.29-.232.209 0 1.468.615 1.968.962.272.188.848.713 1.28 1.166.432.453 1.026 1 1.32 1.216.49.36 1.492.9 2.175 1.17.252.1-.022.114-2.674.132-3.85.027-3.729.075-3.731-1.508-.001-.725-.025-.895-.149-1.043-.182-.219-.584-.236-.812-.036-.147.13-.161.238-.16 1.199 0 .95.02 1.097.191 1.454.105.22.314.49.464.6.61.453.46.44 5.454.44h4.595l3.943 1.56c3.69 1.46 3.976 1.56 4.45 1.56 1.118 0 2.042-.857 2.042-1.893v-.272l.46-.051c.568-.064 1.25-.376 1.48-.677l.172-.226h5.69c3.86 0 5.794-.028 6.012-.086.421-.111 1.088-.77 1.223-1.206.076-.247.098-3.307.098-13.53V4.852l-.872-2.16c-.48-1.188-.951-2.241-1.048-2.34-.096-.1-.332-.22-.524-.268-.45-.11-3.06-.111-3.382-.002-.45.152-.52.787-.109 1 .096.05.76.083 1.676.083h1.518l.38.952c.21.524.498 1.239.642 1.589.144.35.24.656.216.68-.025.024-2.777.044-6.116.044H27.31l-.043-.175-.386-1.613-.345-1.438 2.363-.02c2.297-.02 2.369-.026 2.548-.19.326-.296.21-.761-.227-.91-.3-.1-23.641-.108-24.084-.007zM19.14 1.21c0 .103-.726 3.086-.766 3.15-.052.081-12.207.096-12.207.014 0-.05.906-2.349 1.165-2.957l.108-.253h5.85c3.217 0 5.85.02 5.85.046zm6.572 1.548c.206.855.359 1.58.34 1.613-.052.086-6.432.072-6.432-.014 0-.04.162-.753.36-1.587.199-.833.36-1.536.36-1.561 0-.026 1.125-.038 2.5-.027l2.498.02.374 1.556zm.555 6.772c0 3.757-.009 4.007-.136 3.907-.074-.059-.66-.557-1.3-1.108a53.424 53.424 0 00-1.425-1.193c-.306-.228-.731-.253-1.034-.06-.188.119-2.007 1.658-2.652 2.243l-.26.236V5.517h6.807V9.53zM6.67 16.968c1.241.487 1.421.58 1.395.715-.04.2-3.664 8.84-3.746 8.93-.085.093-3.131-1.117-3.101-1.232.013-.05.87-2.11 1.905-4.576 1.475-3.513 1.908-4.474 2.002-4.44.066.024.761.295 1.545.603zm17.589.169c.45.226.459.97.013 1.203-.091.047-1.446.47-3.011.941-1.566.47-2.934.895-3.042.942-.243.108-.362.422-.264.697.09.254-.222.12 5.948 2.558 2.731 1.079 5.062 2.027 5.18 2.108.456.31.462 1.04.012 1.384-.453.345-.456.344-4.349-1.198-2.002-.793-3.72-1.442-3.815-1.442-.465 0-.72.616-.384.93.084.079 2.081.904 4.437 1.832 2.993 1.18 4.354 1.754 4.513 1.903.166.154.241.312.27.57.04.33.02.379-.24.632-.265.257-.428.312-.819.278-.088-.008-2.117-.788-4.51-1.733-4.704-1.858-4.622-1.835-4.889-1.374-.173.299-.063.586.291.76.165.081 1.65.68 3.302 1.332 3.919 1.545 3.964 1.565 4.118 1.855.333.625-.114 1.333-.842 1.333-.095 0-1.808-.648-3.808-1.439-2-.79-3.684-1.438-3.743-1.438-.059 0-.202.073-.318.162-.258.196-.289.601-.062.8.082.073 1.443.643 3.023 1.268s2.97 1.201 3.088 1.281c.255.173.419.6.348.91-.027.122-.155.32-.283.439-.45.417-.388.436-6.566-2.012-3.105-1.23-5.861-2.343-6.126-2.473-.665-.326-1.114-.66-1.721-1.281-1.523-1.555-2.263-2.1-3.539-2.607l-.616-.245.12-.278c.066-.153.626-1.485 1.245-2.96A517 517 0 018.5 19.74l.154-.353.751.031c.945.04 1.853-.06 4.569-.501 1.934-.315 7.142-1.322 8.928-1.726.841-.19 1.067-.2 1.357-.054z" fill="#fff"/></g><defs><linearGradient id="paint0_linear_1710_4875" x1="0" y1="0" x2="36.389" y2="41.646" gradientUnits="userSpaceOnUse"><stop stop-color="#0ABD92"/><stop offset="1" stop-color="#009DB8"/></linearGradient></defs></svg>
